!!!!SEGMENT: pl-wn--mus-iii-83-273--001_wieniawski-henryk--romance-sans-paroles-op-9.krn
!!!cenid: 18xx:3798
!!!COM: Wieniawski, Henryk
!!!COM-rismid: pe137176
!!!CDT:
!!!CNT:
!!!GTL: Opus 9
!!!OTL: Romance sans Paroles
!!!PDT:
!!!AGN:
!!!SMS-siglum: PL-Wn
!!!SMS-shelfmark: Mus.III.83.273
!!!SMS-shelfwork: 001 G
!!!SMS-variant:
!!!SMS-altvar:
!!!NIFC-rismid:
!!!URL-scan: https://polona.pl/item/romance-sans-paroles-et-rondo-elegant-op-9,NzI1MzY1OTQ/4/#info:metadata
!!!ONB-nifc: UWAGA: części: 1. Romance sans Paroles i 2. Rondo elegant (od skanu 10)
!!!AIN: 1 piano 1 violn
!!!key: d
**kern	**kern	**dynam	**kern	**dynam
*part2	*part2	*part2	*part1	*part1
*staff3	*staff2	*	*staff1	*
*I"PIANO.	*I"PIANO.	*	*I"VIOLON.	*
*Ipiano	*Ipiano	*	*Ivioln	*
*ICklav	*ICklav	*	*ICstr	*
*IGacmp	*IGacmp	*	*IGsolo	*
*clefF4	*clefG2	*	*clefG2	*
*k[b-]	*k[b-]	*	*k[b-]	*
*d:	*d:	*	*d:	*
*M6/8	*M6/8	*	*M6/8	*
=1	=1	=1	=1	=1
!	!	!	!LO:TX:b:i:t=Andante non troppo.	!
4D/ 4DD/	4f/ 4d/ 4A/	p	2.r	.
8D/ 8DD/	8f/ 8d/ 8A/	.	.	.
4D/ 4DD/	4f/ 4d/ 4A/	.	.	.
8D/ 8DD/	8f/ 8d/ 8A/	.	.	.
=2	=2	=2	=2	=2
4D/ 4DD/	4f/ 4d/ 4A/	.	2.r	.
8D/ 8DD/	8f/ 8d/ 8A/	.	.	.
4D/ 4DD/	4f/ 4d/ 4A/	.	.	.
8D/ 8DD/	8f/ 8d/ 8A/	.	.	.
=3	=3	=3	=3	=3
*	*^	*	*	*
4D/ 4DD/	(2.e^/	4c#X\ 4A\ 4G\	.	[4.aa\	p >
8D/ 8DD/	.	8c#\ 8A\ 8G\	.	.	.
4D/ 4DD/	.	4c#\ 4A\ 4G\	<	8aa\L]	]
.	.	.	.	8ee\	<
8D/ 8DD/	.	8c#\ 8A\ 8G\	[	8ff\J	[[
=4	=4	=4	=4	=4	=4
4D/ 4DD/	4.f^/)	4d\ 4A\ 4F\	>	([4.dd\	>
8D/ 8DD/	.	8d\ 8A\ 8F\	]	.	.
4D/ 4DD/	(4.f#X^/	4d\ 4c\	<	(4dd~\]	] <
8D/ 8DD/	.	8d\ 8c\	[	8dd'\))	[[
=5	=5	=5	=5	=5	=5
4D/ 4DD/	[2.g^/)	4d\ 4Bn\	>	(4gg~\	>
8D/ 8DD/	.	8d\ 8B\	]	8gg'\)	.
4D/ 4DD/	.	(>4d\ 4B-X\	<	(8gg\L	] <
.	.	.	.	8bb-\	.
8D/ 8DD/	.	8d\ 8B-\	[	8ddd\J)	[
=6	=6	=6	=6	=6	=6
*^	*	*	*	*	*
4.D/ [4.DD/	4.ryy	8g/L]	4.d\ 4.A\	>	(4.ddd\	>
.	.	8f/	.	.	.	.
.	.	8e/J	.	.	.	.
(8DD/L]	4.DD\	4.f/ 4.d/ 4.A/)	4.ryy	]	4aa\)	]
8FF/	.	.	.	.	.	.
8GG/J	.	.	.	.	8aa'\	p < [[
*v	*v	*	*	*	*	*
!!LO:LB:g=original
=7	=7	=7	=7	=7	=7
4AA/ 4CC#X/)	(2.e^/	4A\ 4G\	.	[4.aa\	>
8AA/ 8CC#/	.	8A\ 8G\	.	.	.
4AA/ 4CC#/	.	4A\ 4G\	<	8aa\L]	]
.	.	.	.	8ee\	<
8AA/ 8CC#/	.	8A\ 8G\	[	8ff\J	[
=8	=8	=8	=8	=8	=8
4AA/ 4DD/	4.f^/)	4A\ 4F\	>	(4.dd\	>
8AA/ 8DD/	.	8A\ 8F\	]	.	.
8BBBn/L	(4f^/	4d\ 4A\	<	(4dd~\	] <
8DD/	.	.	.	.	.
8FF/J	8d^/	8Bn\ 8A\	.	8dd'\))	.
=9	=9	=9	=9	=9	=9
4.EE/	4.e^/	4d\ 4Bn\ 4A\	.	(4ee~\	.
.	.	8d\ 8B\ 8A\	.	8ee'\)	.
4.EEE/	4.e^/	4d\ 4B\ 4G#X\	.	(8ee\L	.
.	.	.	.	(8qgg/	.
.	.	.	.	8ff\))	.
.	.	8d\ 8B\ 8G#\	[	8ee'\J	[
*	*v	*v	*	*	*
=10	=10	=10	=10	=10
4AAA/	4e/ 4c#X/ 4A/ 4E/)	> ]	(4.aa\	>
8r	8r	.	.	]
4r	4r	.	8a/L	<
.	.	.	(8qcc/	.
.	.	.	8b-/)	.
8r	8r	.	8a/J)	[
=11	=11	=11	=11	=11
*	*^	*	*	*
4D/ 4DD/	(2.e^/	4c#X\ 4A\ 4Gn\	.	[4.aa\	>
8D/ 8DD/	.	8c#\ 8A\ 8G\	.	.	.
4D/ 4DD/	.	4c#\ 4A\ 4G\	<	8aa\L]	]
.	.	.	.	8ee\	<
8D/ 8DD/	.	8c#\ 8A\ 8G\	[	8ff\J	[[
=12	=12	=12	=12	=12	=12
4D/ 4DD/	4.f^/)	4d\ 4A\ 4F\	>	(4.dd\	>
8D/ 8DD/	.	8d\ 8A\ 8F\	]	.	]
4D/ 4DD/	(4.f#X^/	4d\ 4c\	<	(4dd~\	<
8D/ 8DD/	.	8d\ 8c\	[	8dd'\))	[
=13	=13	=13	=13	=13	=13
4D/ 4DD/	[2.g^/)	4d\ 4Bn\	>	(4gg~\	>
8D/ 8DD/	.	8d\ 8B\	]	8gg'\)	]
4D/ 4DD/	.	(>4d\ 4B-X\	<	(8gg\L	<
.	.	.	.	8bb-\	.
8D/ 8DD/	.	8d\ 8B-\	[[	8ddd\J)	[
!!LO:LB:g=original
=14	=14	=14	=14	=14	=14
*^	*	*	*	*	*
4.D/ 4.DD/	4.ryy	8g/L]	4.d\ 4.A\	>	(4.ddd\	>
.	.	8f/	.	.	.	.
.	.	8e/J	.	.	.	.
(8DD/L	4.DD\	4.f/ 4.d/ 4.A/)	4.ryy	]	4aa\)	]
8FF/	.	.	.	.	.	.
8AA/J	.	.	.	.	8aa'\	<
*v	*v	*	*	*	*	*
*	*v	*v	*	*	*
=15	=15	=15	=15	=15
4C/ 4CC/)	4e/ 4c/ 4B-/	<	(4ccc\	.
.	.	.	(8qeee/	.
8C/ 8CC/	8e/ 8c/ 8B-/	.	8ddd\))	.
4C/ 4CC/	4e/ 4c/ 4B-/	.	(4ccc\	.
8C/ 8CC/	8e/ 8c/ 8B-/	[	8gg\)	[
=16	=16	=16	=16	=16
4C/ 4FF/	4f/ 4A/	>	4.aa\	>
8C/ 8FF/	8f/ 8A/	.	.	.
4BB-/	4f/ 4d-X/ 4G/	] <	(8bb-\	] ] <
.	.	.	[4fff\	.
8BBn/	8f/ 8dn/ 8G#X/	.	.	.
=17	=17	=17	=17	=17
4C/	4f/ 4c/ 4A/	[	16fff\LL])	.
.	.	.	(16cc\	[
.	.	.	16dd\	.
.	.	.	16cc\	.
8C/	8f/ 8c/ 8A/	.	16bn\	.
.	.	.	16cc\JJ)	.
4CC/	4f/ 4c/ 4B-/	>	(4aa\	>
8CC/	8e/ 8c/ 8B-/	.	8gg\)	.
=18	=18	=18	=18	=18
4FF/	4f/ 4c/ 4A/	]	4.ff\	]
8r	8r	.	.	.
!	!	!	!LO:TX:b:i:t=A	!
4r	4r	.	(4aa~\	<
8r	8r	.	8aa'\)	.
=19	=19	=19	=19	=19
*	*^	*	*	*
4e\ 4A\ 4C#X\	([4.aa^/	4g\	<	(4aa~\	.
8e\ 8A\ 8C#\	.	8g\	.	8aa'\)	.
4e\ 4A\ 4C#\	8aa/L]	4g\	.	(8aa\L	.
.	.	.	.	(8qccc/	.
.	8ee/	.	.	8bb-\))	.
8e\ 8A\ 8C#\	8ff/J	8g\	[	8aa'\J	[
*	*v	*v	*	*	*
=20	=20	=20	=20	=20
4A\ 4D\	4dd/ 4f/)	>	8fff~\L	>
.	.	.	(16eee\L	.
.	.	.	16ccc#X\	.
8A\ 8D\	8dd/ 8f/	]	16ddd\	.
.	.	.	16fff\JJ)	]
4A\ 4D\	4dd/ 4f/ 4d/	<	(4aa~\	<
8A\ 8Cn\	8dd/ 8f/ 8d/	.	8aa'\)	.
!!LO:LB:g=original
=21	=21	=21	=21	=21
4B-\ 4F\ 4BB-\	4dd/ 4f/ 4d/	.	(4ddd~\	.
8B-\ 8F#X\ 8BB-\	8dd/ 8f#X/ 8d/	.	8ddd'\)	.
4B-\ 4G\ 4BB-\	4dd/ 4g/ 4d/	.	(8ddd\L	.
.	.	.	8eee\	.
8B-\ 8G#X\ 8BB-\	8dd/ 8g#X/ 8d/	[[	8ddd\J)	[[
=22	=22	=22	=22	=22
4A\ 4AA\	4cc#X/ 4a/ 4e/ 4c#X/	>	4.ccc#X\	>
8r	8r	]	.	]
4r	4r	.	(4aa~\	<
8r	8r	.	8aa'\)	.
=23	=23	=23	=23	=23
*	*^	*	*	*
4e\ 4A\ 4C#X\	([4.aa^/	4g\	<	(4aa~\	.
8e\ 8A\ 8C#\	.	8g\	.	8aa'\)	.
4e\ 4A\ 4C#\	8aa/L]	4g\	.	(8aa\L	.
.	.	.	.	(8qccc/	.
.	8ee/	.	.	8bb-\))	.
8e\ 8A\ 8C#\	8ff/J	8g\	[[	8aa'\J	[[
*	*v	*v	*	*	*
=24	=24	=24	=24	=24
4A\ 4D\	4dd/ 4f/)	>	8aaa\L	>
.	.	.	(16fff\L	.
.	.	.	16ccc#X\	.
8A\ 8D\	8dd/ 8f/	]	16ddd\	.
.	.	.	16fff\JJ)	]
4A\ 4D\	4dd/ 4f/ 4d/	<	(4aa~\	<
8A\ 8Cn\	8dd/ 8f/ 8d/	.	8aa'\)	.
=25	=25	=25	=25	=25
4B-\ 4F\ 4BB-\	4dd/ 4f/ 4d/	.	(4ddd~\	.
8B-\ 8F#X\ 8BB-\	8dd/ 8f#X/ 8d/	.	8ddd'\)	.
4B-\ 4G\ 4BB-\	4dd/ 4g/ 4d/	.	(8ddd\L	.
.	.	.	8.fff\	.
8B-\ 8G#X\ 8BB-\	8dd/ 8g#X/ 8d/	[	.	.
.	.	.	16gg#X\Jk)	[
=26	=26	=26	=26	=26
8A\ 8AA\	8cc#X/ 8a/ 8e/ 8c#X/	>	8aa\	>
!	!	!	!LO:TX:b:i:t=stringendo	!
.	.	.	(>8qa/	]
8r	8r	]	4.aa\)	<
!	!LO:TX:b:i:t=stringendo	!	!	!
8E/ 8AA/	8a/ 8c#/	<	.	.
8Fn/L 8AA/	8a/L 8d/	.	.	.
.	.	.	(>8qa/	.
8r	8r	.	[4aa\)	.
8F#X/J 8AA/	8a/J 8d#X/	[[	.	.
=27	=27	=27	=27	=27
8G\ 8AA\	8a/ 8e/ 8c#X/	>	8aa\]	[[
.	.	.	(>8qa/	.
8r	8r	]	8aa\L)	>
8r	8r	.	8aa'\J	.
!	!LO:TX:b:i:t=rit.	!	!	!
4r	4r	.	(8aa\L	] p
!	!	!	!LO:TX:b:i:t=rit.	!
.	.	.	(8qccc/	<
.	.	.	8bb-\)	.
8r	8r	.	8aa\J)	[[
!!LO:PB:g=original
=28	=28	=28	=28	=28
*	*^	*	*	*
!	!LO:TX:a:i:t=a tempo	!	!	!LO:TX:a:i:t=a tempo	!
4D/ 4DD/	(2.e^/	4c#X\ 4A\ 4G\	p	[4.aa\	>
8D/ 8DD/	.	8c#\ 8A\ 8G\	.	.	.
4D/ 4DD/	.	4c#\ 4A\ 4G\	<	8aa\L]	]
.	.	.	.	8ee\	<
8D/ 8DD/	.	8c#\ 8A\ 8G\	.	8ff\J	[[
=29	=29	=29	=29	=29	=29
4D/ 4DD/	4.f^/)	4d\ 4A\ 4F\	[ >	([4.dd\	>
8D/ 8DD/	.	8d\ 8A\ 8F\	]]	.	.
4D/ 4DD/	(4.f#X^/	4d\ 4c\	<	(4dd~\]	] <
8D/ 8DD/	.	8d\ 8c\	[[	8dd'\))	[[
=30	=30	=30	=30	=30	=30
4D/ 4DD/	[2.g^/)	4d\ 4Bn\	[ >	(4gg~\	>
8D/ 8DD/	.	8d\ 8B\	.	8gg'\)	.
4D/ 4DD/	.	(>4d\ 4B-X\	] <	(8gg\L	] <
.	.	.	.	8bb-\	.
8D/ 8DD/	.	8d\ 8B-\	[[	8ddd\J)	[[
=31	=31	=31	=31	=31	=31
*^	*	*	*	*	*
4.D/ [4.DD/	4.ryy	8g/L]	4.d\ 4.A\	>	(4.ddd\	>
.	.	8f/	.	.	.	.
.	.	8e/J	.	.	.	.
(8DD/L]	4.DD\	4.f/ 4.d/ 4.A/)	8ryy	.	4aa\)	]
8FF/	.	.	4ryy	]	.	.
8GG/J	.	.	.	.	8aa'\	< [[
*v	*v	*	*	*	*	*
=32	=32	=32	=32	=32	=32
4AA/ 4CC#X/)	(2.e^/	4A\ 4G\	.	[4.aa\	>
8AA/ 8CC#/	.	8A\ 8G\	.	.	.
4AA/ 4CC#/	.	4A\ 4G\	<	8aa\L]	]]
.	.	.	.	8ee\	<
8AA/ 8CC#/	.	8A\ 8G\	[[	8ff\J	[[
!!LO:LB:g=original
=33	=33	=33	=33	=33	=33
4AA/ 4DD/	4.f^/)	4d\ 4A\ 4F\	>	(4.dd\	>
8AA/ 8DD/	.	8d\ 8A\ 8F\	.	.	.
4BB-/ 4BBB-/	(4.f^/	4d\ 4G#X\ 4F\	] <	4ff\	] <
8BB-/ 8BBB-/	.	8d\ 8G#\ 8F\	.	8g#X/)	.
=34	=34	=34	=34	=34	=34
4AA/ 4AAA/	4.f^/	4d\ 4A\ 4F\	.	(16a\LL	.
.	.	.	[	16dd\	[
.	.	.	.	16ff\	.
.	.	.	.	16bb-\JJ)	.
8AA/ 8AAA/	.	8d\ 8A\ 8F\	.	(4aa~\	.
4AA/ 4AAA/	4.e^/	4d\ 4A\ 4F\	.	.	.
.	.	.	.	(16a\LL	.
.	.	.	.	16cc#X\	.
8AA/ 8AAA/	.	8c#X\ 8A\ 8Gn\	.	16ee\	.
.	.	.	.	16ff\JJ	.
=35	=35	=35	=35	=35	=35
8AA/ 8DD/	8f/ 8d/ 8A/ 8F/)	8ryy	>	8dd\))	>
8r	8r	8r	.	4.aa\	] sf >
8r	8ryy	(>[<8aa\	] sf	.	.
*clefG2	*	*	*	*	*
4dd/ 4a/ 4d/	4eee/ 4ccc#X/ 4gg/	4.aa\]	p	.	.
.	.	.	.	8ee\L	.
8dd/ 8a/ 8d/	8eee/ 8ccc#/ 8gg/	.	.	8ff\J	.
=36	=36	=36	=36	=36	=36
8dd/ 8a/ 8d/	8fff\ 8ddd\ 8aa\ 8ff\)	8ryy	.	8dd'\	]]
8r	8r	8ryy	.	4.a/	sf >
8r	([8a/	8ryy	sf	.	.
*clefF4	*	*	*	*	*
4d\ 4A\ 4D\	4.a\]	4ee/ 4cc#X/ 4g/	p	.	.
.	.	.	.	8e/L	.
8d\ 8A\ 8D\	.	8ee/ 8cc#/ 8g/	.	8f/J	.
*	*v	*v	*	*	*
=37	=37	=37	=37	=37
8d\ 8A\ 8D\	8ff\ 8dd\ 8a\ 8f\)	.	8d'/	.
.	.	.	(8qB-/	]
8r	8r	.	4.A/)	>
(8qBB-/	.	.	.	.
*	*clefF4	*	*	*
8AA/)	(8c#X\ 8A\ 8G\	sf	.	.
8DD/	8d\ 8A\ 8F\)	p	.	]
.	.	.	(8qB-/	>
8r	8r	.	4A/)	.
(8qBB-/	.	.	.	.
8AA/)	(8c#\ 8A\ 8G\	sf	.	]
!!LO:LB:g=original
=38	=38	=38	=38	=38
4DD/	4d\ 4A\ 4F\)	p <	(4dd\	p <
8DD/	(8Bn\ 8A\	.	8ff'\)	[[
4EE/	4e\ 4G#X\	[ >	(4ee\	>
8GG#X/	8e\ 8B\	]]	8dd\)	]]
=39||	=39||	=39||	=39||	=39||
*k[f#c#g#]	*k[f#c#g#]	*	*k[f#c#g#]	*
!	!	!	!LO:TX:b:i:t=poco più lento	!
!	!LO:TX:a:i:t=poco più lento	!	!LO:TX:a:B:t=B	!
2.AA/ 2.AAA/	16e\LL)	p <	4.cc#\	<
.	(16c#\	.	.	.
.	16E\	.	.	.
.	16c#\	.	.	.
.	16A\	.	.	.
.	16E\JJ	.	.	.
.	16e\LL	.	4.ee\	.
.	16c#\	.	.	.
.	16E\	.	.	.
.	16c#\	.	.	.
.	16A\	.	.	.
.	16E\JJ	[[	.	[[
=40	=40	=40	=40	=40
2.AA/ 2.AAA/	16f#\LL	>	(8dd#X\L	>
.	16cn\	.	.	.
.	16F#\	.	8aa\	.
.	16d#X\	.	.	.
.	16c\	.	8dd#\J)	.
.	16F#\JJ	.	.	.
.	16e\LL	.	4.ee\	]]
.	16c#X\	.	.	.
.	16F#\	.	.	.
.	16c#\	.	.	.
.	16A\	.	.	.
.	16E\JJ)	]]	.	.
*	*clefG2	*	*	*
!!LO:LB:g=original
=41	=41	=41	=41	=41
4.C#/ 4.CC#/	(16a/LL	<	4ccc#\	<
.	16e/	.	.	.
.	16A/	.	.	.
.	16a/	.	.	.
.	16e#X/	.	16bb\LL	.
.	16A/JJ	.	16aa\JJ	.
4.D/ 4.DD/	16a/LL	.	(16gg#\LL	.
.	16f#/	.	16ff#\	.
.	16A/	.	16ee#X\	.
.	16f#/	.	16ff#\	.
.	16d/	.	16gg#\	.
.	16A/JJ	[[	16ff#\JJ)	[[
=42	=42	=42	=42	=42
4.E/ 4.EE/	16g#/LL	>	(4een\	>
.	16d/	.	.	.
.	16G#/	.	.	.
.	16e/	.	.	.
.	16d/	.	8b\)	.
*	*clefF4	*	*	*
.	16E/JJ	.	.	.
4.AA/ 4.AAA/	16c#\LL)	.	4.cc#\	]]
.	(16AA\	] <	.	.
.	16C#\	.	.	.
.	16E\	.	.	.
.	16A\	.	.	.
.	16c#\JJ	.	.	.
=43	=43	=43	=43	=43
2.AA/ 2.AAA/	16e\LL	.	4.cc#\	<
.	16c#\	.	.	.
.	16E\	.	.	.
.	16c#\	.	.	.
.	16A\	.	.	.
.	16E\JJ	.	.	.
.	16e\LL	.	4.ee\	.
.	16c#\	.	.	.
.	16E\	.	.	.
.	16c#\	.	.	.
.	16A\	.	.	.
.	16E\JJ	[[	.	[[
!!LO:PB:g=original
=44	=44	=44	=44	=44
2.AA/ 2.AAA/	16f#\LL	>	(8dd#X\L	>
.	16cn\	.	.	.
.	16F#\	.	8aa\	.
.	16d#X\	.	.	.
.	16c\	.	8dd#\J)	.
.	16F#\JJ	.	.	.
.	16e\LL	.	4.ee\	]
.	16c#X\	.	.	.
.	16E\	.	.	.
.	16c#\	.	.	.
.	16A\	.	.	.
.	16E\JJ)	]]	.	.
*	*clefG2	*	*	*
=45	=45	=45	=45	=45
4.AA#X/ 4.AAA#X/	(>16cc#/LL	<	4.ff##X\	<
.	16gn/	.	.	.
.	16c#/	.	.	.
.	16dd/	.	.	.
.	16dd#X/	.	.	.
.	16ee/JJ	.	.	.
!	!LO:TX:b:i:t=poco rit.	!	!LO:TX:b:i:t=poco rit.	!
4.BB/ 4.BBB/	16b/LL	.	(16gg#\LL	.
.	16e/	.	16aa\	.
.	16B/	.	16aa#X\	.
.	16g#X/	.	16bb\	.
.	16e/	.	16a#X\	.
.	16B/JJ	[[	16b\JJ)	[[
=46	=46	=46	=46	=46
4.BB/ 4.BBB/	16a/LL	>	(16cc#\LL	>
.	16e/	.	16b\	.
.	16B/	.	16ee\	.
.	16a/	.	16dd#X\	.
.	16d#X/	.	16gg#\	.
.	16B/JJ	.	16ff#\JJ)	.
4.E/ 4.EE/	16g#/LL	.	4.ee\	]]
.	16e/	.	.	.
.	16B/)	.	.	.
.	(16gn/	] <	.	.
.	16e/	.	.	.
.	16B/JJ	.	.	.
*	*clefF4	*	*	*
!!LO:LB:g=original
=47	=47	=47	=47	=47
!	!LO:TX:a::i:t=a tempo	!	!LO:TX:a:i:t=a tempo	!
2.BB/ 2.BBB/	16f#\LL	.	4.ff#\	<
.	16d\	.	.	.
.	16F#\	.	.	.
.	16d\	.	.	.
.	16B\	.	.	.
.	16F#\JJ	.	.	.
.	16f#\LL	.	(4bb\	.
.	16d\	.	.	.
.	16F#\	.	.	.
.	16d\	.	.	.
.	16B\	.	8ff#\)	.
.	16F#\JJ	.	.	.
=48	=48	=48	=48	=48
[4.BB/ [4.BBB/	16f#\LL	.	(8.ff#\L	.
.	16d\	.	.	[
.	16A#X\	[	.	.
.	16e\	.	16ggnM\L)	.
.	16A#\	.	16ff#'\	.
.	16F#\JJ	.	16ee'\JJ	.
4BB/] 4BBB/]	16d\LL	.	(16dd\LL	.
.	16B\	.	16cc#\	.
.	16F#\	.	16b\	.
.	16d\	.	16dd\	.
8AA/ 8AAA/	16B\	.	16.bb\	.
.	16Fn\JJ	.	.	.
.	.	.	32ee\JJk)	.
=49	=49	=49	=49	=49
4.GG#/ 4.GGG#/	16e\LL	>	4.ee\	>
.	16B\	.	.	.
.	16E\	.	.	.
.	16d\	.	.	.
.	16B\	.	.	.
.	16E\JJ	.	.	.
4.AA/ 4.AAA/	16c#\LL	.	(4aa\	.
.	16A\	.	.	]
.	16E\	.	.	.
.	16e\	.	.	.
.	16c#\	.	8ee\)	<
.	16E\JJ)	]]	.	.
*	*clefG2	*	*	*
!!LO:LB:g=original
=50	=50	=50	=50	=50
!	!LO:TX:b:i:t=rit.	!	!LO:TX:b:i:t=rit.	!
4.BB/ 4.BBB/	(16A/LL	.	(16dd#X\LL	.
.	16d#X/	.	16ccc#\)	.
.	16B/	.	16bb\	.
.	16b/	.	16aa\	.
.	16a/	.	16gg#\	.
.	16d#/JJ	.	16ff#\JJ	[[
4.E/ 4.EE/	16e/LL	>	(16gg#\LL	>
.	16dn/	.	16ff#\	.
*	*clefF4	*	*	*
.	16G#/	.	16ee\	.
.	16A/	.	16dd#\	.
.	16B/	.	16ddn\	.
.	16E/JJ	]]	16b\JJ)	]]
=51	=51	=51	=51	=51
!	!	!	!LO:TX:a:i:t=a tempo	!
!	!LO:TX:a:i:t=a tempo	!	!LO:TX:a:B:t=C	!
2.AA/ 2.AAA/	16e\LL)	<	4.cc#\	<
.	(16c#\	.	.	.
.	16E\	.	.	.
.	16c#\	.	.	.
.	16A\	.	.	.
.	16E\JJ	.	.	.
.	16e\LL	.	4.ee\	.
.	16c#\	.	.	.
.	16E\	.	.	.
.	16c#\	.	.	.
.	16A\	.	.	.
.	16E\JJ	[[	.	[[
=52	=52	=52	=52	=52
2.AA/ 2.AAA/	16f#\LL	>	(8dd#X\L	>
.	16cn\	.	.	.
.	16F#\	.	8aa\	.
.	16d#X\	.	.	.
.	16c\	.	8dd#\J)	.
.	16F#\JJ	.	.	.
.	16e\LL	.	4.ee\	]]
.	16c#X\	.	.	.
.	16E\	.	.	.
.	16c#\	.	.	.
.	16A\	.	.	.
.	16E\JJ)	]]	.	.
*	*clefG2	*	*	*
!!LO:LB:g=original
=53	=53	=53	=53	=53
4.C#/ 4.CC#/	(16a/LL	<	4ccc#\	<
.	16e/	.	.	.
.	16A/	.	.	.
.	16a/	.	.	.
.	16e#X/	.	16bb\LL	.
.	16A/JJ	.	16aa\JJ	.
4.D/ 4.DD/	16a/LL	.	(16gg#\LL	.
.	16f#/	.	16ff#\	.
.	16A/	.	16ee#X\	.
.	16f#/	.	16ff#\	.
.	16d/	.	16gg#\	.
.	16A/JJ	[[	16ff#\JJ)	[[
=54	=54	=54	=54	=54
4.E/ 4.EE/	16g#/LL	>	(4een\	>
.	16d/	.	.	.
.	16G#/	.	.	.
.	16en/	.	.	.
.	16d/	.	8b\)	.
*	*clefF4	*	*	*
.	16E/JJ	.	.	.
4.AA/ 4.AAA/	16c#\LL)	.	4.cc#\	.
.	(16AA\	] <	.	] <
.	16C#\	.	.	.
.	16E\	.	.	.
.	16A\	.	.	.
.	16c#\JJ	.	.	.
=55	=55	=55	=55	=55
2.AA/ 2.AAA/	16e\LL	.	4.cc#\	.
.	16c#\	.	.	.
.	16E\	.	.	.
.	16c#\	.	.	.
.	16A\	.	.	.
.	16E\JJ	.	.	.
.	16e\LL	.	4.ee\	.
.	16c#\	.	.	.
.	16E\	.	.	.
.	16c#\	.	.	.
.	16A\	.	.	[
.	16E\JJ	[[	.	.
!!LO:PB:g=original
=56	=56	=56	=56	=56
2.AA/ 2.AAA/	16f#\LL	>	(8dd#X\L	>
.	16cn\	.	.	.
.	16F#\	.	8aa\	.
.	16d#X\	.	.	.
.	16c\	.	8dd#\J)	.
.	16F#\JJ	.	.	.
.	16e\LL	.	4.ee\	]]
.	16c#X\	.	.	.
.	16E\	.	.	.
.	16c#\	.	.	.
.	16A\	.	.	.
.	16E\JJ)	]]	.	.
*	*clefG2	*	*	*
=57	=57	=57	=57	=57
!	!LO:TX:b:i:t=animato	!	!LO:TX:b:i:t=animato	!
2.DD/ 2.DDD/	(16a/LL	<	4.ff#\	<
.	16f#/	.	.	.
.	16A/	.	.	.
.	16f#/	.	.	.
.	16d/	.	.	.
.	16A/JJ	.	.	.
.	16a/LL	.	4.aa\	.
.	16f#/	.	.	.
.	16A/	.	.	.
.	16f#/	.	.	.
.	16d/	.	.	.
.	16A/JJ	[[	.	[
=58	=58	=58	=58	=58
2.DD/ 2.DDD/	16b/LL	>	(8gg#\L	>
.	16fn/	.	.	.
.	16B/	.	8ddd\	.
.	16g#/	.	.	.
.	16f/	.	8gg#\J)	.
.	16B/JJ	.	.	.
.	16a/LL	.	4.aa\	.
.	16f#X/	.	.	]
.	16A/	.	.	.
.	16f#/	.	.	.
.	16d/	.	.	.
.	16A/JJ)	]]	.	.
!!LO:LB:g=original
=59	=59	=59	=59	=59
*	*	*	*	*^
4.DD#X/ 4.DDD#X/	(16ffn\LL	> <	4.bb#X\ 4.b#X\	>	<
.	16b#X\	.	.	.	.
.	16fn\	.	.	.	.
.	16ff\	.	.	.	.
.	16b#\	.	.	.	.
.	16f\JJ	.	.	.	.
4.EE/ 4.EEE/	16ee\LL	.	4.ccc#\ 4.cc#\	]	.
.	16cc#\	.	.	.	.
.	(16e\)	.	.	<	.
.	16ee\	[ <	.	.	.
.	16cc#\	.	.	.	.
.	16e\JJ	[[	.	[	.
*	*	*	*	*v	*v
=60	=60	=60	=60	=60
4.DD#X/ 4.DDD#X/	16ffn\LL	[ >	4.bb#X\ 4.b#X\	>
.	16b#X\	.	.	.
.	16fn\	.	.	.
.	16ff\	.	.	.
.	16b#\	.	.	.
.	16f\JJ	.	.	.
4.EE/ 4.EEE/	16ee\LL	.	4.ccc#\ 4.cc#\	]
.	16cc#\	.	.	.
.	16e\)	.	.	<
.	(16ee\	] <	.	.
.	16cc#\	.	.	.
.	16e\JJ	[[	.	[[
=61	=61	=61	=61	=61
2.DD#X/ 2.DDD#X/	16ff#X\LL	ff	2.bb#X\ 2.b#X\	ff
.	16b#X\	.	.	.
.	16f#X\	.	.	.
.	16ff#\	.	.	.
.	16b#\	.	.	.
.	16f#\JJ	.	.	.
.	16ff#\LL	.	.	.
.	16b#\	.	.	.
.	16f#\	.	.	.
.	16ggn\	.	.	.
.	16gg#X\	.	.	.
.	16aa\JJ	.	.	.
!!LO:LB:g=original
=62	=62	=62	=62	=62
!	!LO:TX:b:i:t=molto rit.	!	!LO:TX:b:i:t=molto rit.	!
2.EE/ 2.EEE/	16ee/LL	.	16ccc#\LL 16cc#\	.
.	16cc#/	.	16ddd\ 16dd\	.
.	16e/	.	16ddd#X\ 16dd#X\	.
.	16cc#/	.	16eee\ 16ee\	.
.	16a/	.	16dd#\ 16d#X\	.
.	16e/JJ	.	16ee\JJ 16e\	.
.	16dd/LL	.	16ff#\LL 16f#\	.
.	16a/	.	16ee\ 16e\	.
.	16e/	.	16aa\ 16a\	.
.	16dd/	.	16gg#\ 16g#\	.
.	16g#;</	.	(16ccc#\ 16cc#;\	.
.	16e/JJ	.	16bb\JJ 16b\)	.
=63	=63	=63	=63	=63
2.AA/ 2.AAA/	(>16cc#/LL)	.	8aa\ 8a\	.
!	!LO:TX:b:i:t=stringendo	!	!	!
.	16c#/	.	.	.
!	!	!	!LO:TX:b:i:t=stringendo	!
.	.	.	(>8qa/	<
.	16A/	.	4.aa\)	.
.	16a/	.	.	.
.	16d/	.	.	.
.	16B/JJ	.	.	.
.	16a/LL	<	.	.
.	16d#X/	.	.	.
.	.	.	(>8qa/	.
.	16B#X/	.	[4aa\)	.
.	16a/	.	.	.
.	16e/	.	.	.
.	16c#/JJ	.	.	.
=64	=64	=64	=64	=64
4.AA/ 4.AAA/	16a/LL	.	8aa\]	.
.	16fn/	.	.	[
.	.	.	(>8qa/	.
.	16dn/	.	8aa\L)	>
.	16a/	.	.	.
.	16f#X/	.	8aa'\J	.
.	16d#X/JJ	.	.	]
!	!LO:TX:b:i:t=rit.	!	!LO:TX:b:i:t=rit.	!
8AA/ 8AAA/	8a/ 8gn/ 8c#/ 8A/)	[ >	(8aa\L	<
.	.	.	(8qccc#/	.
8r	8r	]	8bb\)	.
8r	8r	.	8aa\J)	[
!!LO:LB:g=original
=65||	=65||	=65||	=65||	=65||
*k[b-]	*k[b-]	*	*k[b-]	*
*	*^	*	*	*
!	!	!	!	!LO:TX:a:B:t=Tempo I.	!
!	!	!	!	!LO:TX:a:B:t=D	!
4D/ 4DD/	(2.e^/	4c#X\ 4A\ 4G\	p	[4.aa\	p >
8D/ 8DD/	.	8c#\ 8A\ 8G\	.	.	.
4D/ 4DD/	.	4c#\ 4A\ 4G\	<	8aa\L]	.
.	.	.	.	8ee\	] <
8D/ 8DD/	.	8c#\ 8A\ 8G\	[[	8ff\J	[[
=66	=66	=66	=66	=66	=66
4D/ 4DD/	4.f^/)	4d\ 4A\ 4F\	>	([4.dd\	>
8D/ 8DD/	.	8d\ 8A\ 8F\	]]	.	.
4D/ 4DD/	(4.f#X^/	4d\ 4c\	<	(4dd~\]	] <
8D/ 8DD/	.	8d\ 8c\	[	8dd'\))	[[
=67	=67	=67	=67	=67	=67
4D/ 4DD/	[2.g^/)	4d\ 4Bn\	>	(4gg~\	>
8D/ 8DD/	.	8d\ 8B\	]]	8gg'\)	.
4D/ 4DD/	.	(>4d\ 4B-X\	<	(8gg\L	] <
.	.	.	.	8bb-\	.
8D/ 8DD/	.	8d\ 8B-\	[[	8ddd\J)	[[
=68	=68	=68	=68	=68	=68
*^	*	*	*	*	*
4.D/ [4.DD/	4.ryy	8g/L]	4.d\ 4.A\	>	(4.ddd\	>
.	.	8fn/	.	.	.	.
.	.	8e/J	.	.	.	.
(8DD/L]	4.DD\	4.f/ 4.d/ 4.A/)	4.ryy	.	4aa\)	.
8FF/	.	.	.	]	.	]
8GG/J	.	.	.	.	8aa'\	p < [[
*v	*v	*	*	*	*	*
=69	=69	=69	=69	=69	=69
4AA/ 4CC#X/)	(2.e^/	4A\ 4G\	.	[4.aa\	>
8AA/ 8CC#/	.	8A\ 8G\	.	.	.
4AA/ 4CC#/	.	4A\ 4G\	<	8aa\L]	.
.	.	.	.	8ee\	] <
8AA/ 8CC#/	.	8A\ 8G\	[[	8ff\J	[[
!!LO:PB:g=original
=70	=70	=70	=70	=70	=70
4AA/ 4DD/	4.f^/)	4A\ 4F\	>	(4.dd\	>
8AA/ 8DD/	.	8A\ 8F\	]]	.	.
8BBBn/L	(4f^/	4d\ 4A\	<	(4dd~\	] <
8DD/	.	.	.	.	.
8FF/J	8d^/	8Bn\ 8A\	.	8dd'\))	.
=71	=71	=71	=71	=71	=71
4.EE/	4.e^/	4d\ 4Bn\ 4A\	.	(4ee~\	.
.	.	8d\ 8B\ 8A\	.	8ee'\)	.
4.EEE/	4.e^/	4d\ 4B\ 4G#X\	.	(8ee\L	.
.	.	.	.	(8qgg/	.
.	.	.	.	8ff\))	.
.	.	8d\ 8B\ 8G#\	[[	8ee'\J	[[
*	*v	*v	*	*	*
=72	=72	=72	=72	=72
4AA/ 4AAA/	4e/ 4c#X/ 4A/ 4E/)	> ]	(4.aa\	>
8r	8r	.	.	.
4r	4r	.	8a/L	] <
.	.	.	(8qcc/	.
.	.	.	8b-/)	.
8r	8r	.	8a/J)	[[
=73	=73	=73	=73	=73
*	*^	*	*	*
4A\ 4D\	(2.cc#X^/	4g\ 4e\	.	[4.aa\	>
8A\ 8D\	.	8g\ 8e\	.	.	.
4A\ 4D\	.	4g\ 4e\	<	8aa\L]	]]
.	.	.	.	8ee\	<
8A\ 8D\	.	8g\ 8e\	[[	8ff\J	[[
=74	=74	=74	=74	=74	=74
4A\ 4D\	4.dd^/)	4f\ 4d\	>	(4.dd\	>
8A\ 8D\	.	8f\ 8d\	]]	.	]]
4D\	(4.ccn^/	4f#X\ 4d\	<	(4dd~\	<
8D\	.	8f#\ 8d\	[[	8dd'\))	[[
!!LO:LB:g=original
=75	=75	=75	=75	=75	=75
4D\	4.bn^/)	4g\ 4d\	>	(4gg~\	>
8D\	.	8g\ 8d\	]]	8gg'\)	]]
4D\	(4.b-^/	4g\ 4d\	<	(8gg\L	<
.	.	.	.	8bb-\	.
8D\	.	8g\ 8d\	[[	8ddd\J)	[[
=76	=76	=76	=76	=76	=76
*^	*	*	*	*	*
4.D\	4.ryy	4.a/ 4.g/	8d\L	>	(4.ddd\	>
.	.	.	8f\	.	.	.
.	.	.	8e\J	.	.	.
(8D/L	4.D\	4.a/ 4.f/ 4.d/)	8ryy	.	4aa\)	]
8F/	.	.	4ryy	]	.	.
8G/J	.	.	.	.	8aa'\	< [[
*v	*v	*	*	*	*	*
=77	=77	=77	=77	=77	=77
4A\ 4C#X\)	(2.a^/	4g\ 4e\	.	[4.aa\	>
8A\ 8C#\	.	8g\ 8e\	.	.	.
4A\ 4C#\	.	4g\ 4e\	<	8aa\L]	]]
.	.	.	.	8ee\	<
8A\ 8C#\	.	8g\ 8e\	[[	8ff\J	[[
=78	=78	=78	=78	=78	=78
4A\ 4D\	4.a^/	4f\ 4d\	>	(4.dd\	>
8A\ 8D\	.	8f\ 8d\	]	.	.
4B-\ 4G#X\ 4BB-\	([4.dd^/)	4f\ 4d\	.	4ff\	] <
8B-\ 8G#\ 8BB-\	.	8f\ 8d\	.	8g#X/)	.
=79	=79	=79	=79	=79	=79
!	!	!	!	!LO:TX:b:i:t=rit.	!
4.A\ 4.AA\	8dd/L]	4.f\ 4.d\	.	(16a\LL	.
.	.	.	.	16dd\	[
!	!LO:TX:b:i:t=rit.	!	!	!	!
.	8a/	.	.	16ff\	.
.	.	.	.	16bb-\JJ)	.
.	8f/J	.	.	(4aa~\	.
4.AA/	4e/ 4d/ 4A/	8ryy	.	.	.
.	.	4ryy	.	(16a\LL	.
.	.	.	.	16cc#X\	.
.	8a/ 8c#X/ 8G/	.	.	16ee\	.
.	.	.	.	16ff\JJ	.
!!LO:LB:g=original
=80	=80	=80	=80	=80	=80
8F/ 8AA/ 8DD/	8a/ 8d/ 8A/)	8ryy	>	8dd\))	>
8r	8r	8ryy	]	4.aa\	] sf >
8r	8ryy	(>[<8aa\	sf	.	.
*clefG2	*	*	*	*	*
4dd/ 4a/ 4d/	4eee/ 4ccc#X/ 4gg/	4.aa\]	p	.	.
.	.	.	.	8ee\L	.
8dd/ 8a/ 8d/	8eee/ 8ccc#/ 8gg/	.	.	8ff\J	.
=81	=81	=81	=81	=81	=81
8dd/ 8a/ 8d/	8fff\ 8ddd\ 8aa\ 8ff\)	8ryy	.	8dd'\	.
8r	8r	8ryy	.	4.a/	] sf >
8r	([8a/	8ryy	sf	.	.
*clefF4	*	*	*	*	*
4d\ 4A\ 4D\	4.a\]	4ee/ 4cc#X/ 4g/	p	.	.
.	.	.	.	8e/L	.
8d\ 8A\ 8D\	.	8ee/ 8cc#/ 8g/	.	8f/J	.
*	*v	*v	*	*	*
=82	=82	=82	=82	=82
!	!LO:TX:b:i:t=rit.	!	!LO:TX:b:i:t=rit.	!
8d\ 8A\ 8D\	8ff/ 8dd/ 8a/ 8f/)	.	8d'/	]
.	.	.	(8qB-/	>
8r	8r	.	4.A/)	.
(8qBB-/	.	.	.	.
*	*clefF4	*	*	*
8AA/)	(8c#X\ 8A\ 8G\	sf	.	]
8DD/	8d\ 8A\ 8F\)	p	.	.
.	.	.	(8qB-/	.
8r	8r	.	4A/)	>
(8qBB-/	.	.	.	.
[>8AA/)	(8c#\ 8A\ 8G\	sf	.	]
=83	=83	=83	=83	=83
!	!	!	!LO:TX:b:i:t=morendo	!
4AA/] 4DD/	4d\ 4A\ 4F\)	p	[2.dd\	.
*	*clefG2	*	*	*
!	!LO:TX:b:i:t=morendo	!	!	!
8r	8r	.	.	.
4f\ 4A\ 4D\	4fff\ 4aa\ 4ff\	.	.	.
8r	8r	.	.	.
*clefG2	*	*	*	*
=84	=84	=84	=84	=84
*	*8va	*	*	*
4ff/ 4a/ 4d/	4ffff\ 4aaa\ 4fff\	p	4dd\]	.
*	*X8va	*	*	*
8r;	8r;	.	8r;	.
4r	4r	.	4r	.
16r	16r	.	16r	.
16ryy	16ryy	.	16ryy	.
=||	=||	=||	=||	=||
*-	*-	*-	*-	*-
!!!system-decoration: (s1){(s2,s3)}
!!!ENC: Berenika Jozajtis
!!!END: 2022-05-15
!!!EED: Andrzej Borzym
!!!EST: 2022-07-14
!!!RDF**kern: > = above
!!!RDF**kern: < = below
